media/backgrounds/stripes.svg

<svg version="1.1" width="496" height="370" viewBox="-1 -1 496 370" xmlns="http://www.w3.org/2000/svg" xmlns:xlink="http://www.w3.org/1999/xlink">
  <!-- Exported by Scratch - http://scratch.mit.edu/ -->
  <g id="ID0.924645765684545">
    <path id="ID0.11298934044316411" fill="#DBFFE2" d="M 1 0 L 480 0 L 480 360 L 1 360 L 1 0 Z "/>
    <g id="ID0.6381962765008211">
      <g id="ID0.5106810196302831">
        <path id="ID0.2934924350120127" fill="#FFFFFF" stroke="#FFFFFF" stroke-width="15" stroke-linecap="round" d="M 236.500 39.200 L 169 4.900 L 103.500 39.600 L 34.600 4.900 L -23.800 34.600 L -23.800 72.400 L 36 42.400 L 104.800 77 L 170.300 42.400 L 237.200 76.300 L 236.500 39.200 " transform="matrix(0.955227792263031, 0, 0, 1, 23.7, 0)"/>
        <path id="ID0.6386130140163004" fill="#FFFFFF" stroke="#FFFFFF" stroke-width="15" stroke-linecap="round" d="M 478.700 21.500 L 445.900 4.800 L 380.400 39.500 L 311.500 4.800 L 244.700 38.800 L 243.300 39.800 L 244 76.900 L 312.900 42.300 L 381.700 76.900 L 447.200 42.300 L 478.700 58.300 L 478.700 21.500 " transform="matrix(0.955227792263031, 0, 0, 1, 23.7, 0)"/>
      </g>
      <g id="ID0.5106810196302831_1_">
        <path id="ID0.07775965007022023" fill="#FFFFFF" stroke="#FFFFFF" stroke-width="15" stroke-linecap="round" d="M 240.800 132.100 L 173.200 97.800 L 107.700 132.400 L 38.900 97.800 L -23.800 129.600 L -23.800 167.400 L 40.200 135.200 L 109.100 169.900 L 174.600 135.200 L 241.400 169.200 L 240.800 132.100 " transform="matrix(0.955227792263031, 0, 0, 1, 23.7, 0)"/>
        <path id="ID0.7981367814354599" fill="#FFFFFF" stroke="#FFFFFF" stroke-width="15" stroke-linecap="round" d="M 478.700 112.200 L 450.100 97.600 L 384.600 132.300 L 315.800 97.600 L 248.900 131.600 L 247.600 132.600 L 248.200 169.700 L 317.100 135.100 L 386 169.700 L 451.500 135.100 L 478.700 148.900 L 478.700 112.200 " transform="matrix(0.955227792263031, 0, 0, 1, 23.7, 0)"/>
      </g>
      <g id="ID0.5106810196302831_2_">
        <path id="ID0.4129948583431542_4_" fill="#FFFFFF" stroke="#FFFFFF" stroke-width="15" stroke-linecap="round" d="M -21.900 316 L -21.200 353.100 L 47.700 318.500 L 116.600 353.100 L 182.100 318.500 L 248.900 352.400 L 248.200 315.300 L 180.600 281 L 115.100 315.600 L 46.300 281 L -20.600 315 L -21.900 316 Z " transform="matrix(0.955227792263031, 0, 0, 1, 23.7, 0)"/>
        <path id="ID0.8041921514086425" fill="#FFFFFF" stroke="#FFFFFF" stroke-width="15" stroke-linecap="round" d="M 478.700 291.700 L 457.500 280.900 L 392 315.600 L 323.200 280.900 L 256.300 314.900 L 255 315.900 L 255.600 353 L 324.500 318.400 L 393.400 353 L 458.900 318.400 L 478.700 328.500 L 478.700 291.700 " transform="matrix(0.955227792263031, 0, 0, 1, 23.7, 0)"/>
      </g>
      <g id="ID0.5106810196302831_3_">
        <path id="ID0.4512990266084671" fill="#FFFFFF" stroke="#FFFFFF" stroke-width="15" stroke-linecap="round" d="M 243.900 222.500 L 176.400 188.200 L 110.900 222.900 L 42 188.200 L -23.800 221.600 L -23.800 259.500 L 43.400 225.700 L 112.200 260.300 L 177.700 225.700 L 244.600 259.600 L 243.900 222.500 " transform="matrix(0.955227792263031, 0, 0, 1, 23.7, 0)"/>
        <path id="ID0.9629462924785912" fill="#FFFFFF" stroke="#FFFFFF" stroke-width="15" stroke-linecap="round" d="M 478.700 201.100 L 453.300 188.100 L 387.800 222.800 L 318.900 188.100 L 252.100 222.100 L 250.700 223.100 L 251.400 260.200 L 320.300 225.600 L 389.100 260.200 L 454.600 225.600 L 478.700 237.800 L 478.700 201.100 " transform="matrix(0.955227792263031, 0, 0, 1, 23.7, 0)"/>
      </g>
    </g>
  </g>
  <path id="ID0.9278498468920588" fill="none" stroke="#000000" stroke-width="2" stroke-linecap="round" d="M 480 21 L 480.300 21.300 "/>
</svg>

<svg width="496" height="370" viewBox="-1 -1 496 370" xmlns="http://www.w3.org/2000/svg"><path fill="#DBFFE2" d="M1 0h479v360H1V0z"/><path d="M236.5 39.2L169 4.9l-65.5 34.7L34.6 4.9l-58.4 29.7v37.8l59.8-30L104.8 77l65.5-34.6 66.9 33.9-.7-37.1m242.2-17.7L445.9 4.8l-65.5 34.7-68.9-34.7-66.8 34-1.4 1 .7 37.1 68.9-34.6 68.8 34.6 65.5-34.6 31.5 16V21.5M240.8 132.1l-67.6-34.3-65.5 34.6-68.8-34.6-62.7 31.8v37.8l64-32.2 68.9 34.7 65.5-34.7 66.8 34-.6-37.1m237.9-19.9l-28.6-14.6-65.5 34.7-68.8-34.7-66.9 34-1.3 1 .6 37.1 68.9-34.6 68.9 34.6 65.5-34.6 27.2 13.8v-36.7M-21.9 316l.7 37.1 68.9-34.6 68.9 34.6 65.5-34.6 66.8 33.9-.7-37.1-67.6-34.3-65.5 34.6L46.3 281l-66.9 34-1.3 1zm500.6-24.3l-21.2-10.8-65.5 34.7-68.8-34.7-66.9 34-1.3 1 .6 37.1 68.9-34.6 68.9 34.6 65.5-34.6 19.8 10.1v-36.8m-234.8-69.2l-67.5-34.3-65.5 34.7L42 188.2l-65.8 33.4v37.9l67.2-33.8 68.8 34.6 65.5-34.6 66.9 33.9-.7-37.1m234.8-21.4l-25.4-13-65.5 34.7-68.9-34.7-66.8 34-1.4 1 .7 37.1 68.9-34.6 68.8 34.6 65.5-34.6 24.1 12.2v-36.7" transform="matrix(.95523 0 0 1 23.7 0)" fill="#FFF" stroke="#FFF" stroke-width="15" stroke-linecap="round"/><path fill="none" stroke="#000" stroke-width="2" stroke-linecap="round" d="M480 21l.3.3"/></svg>
